X: 075
T: Frankie O'Neill's (jig) 
N: 061064
C: BB
Q: 340
L: 1/8
M: 6/8
R: jig
K: Ddor
"Dm"DEF Ddc|"Am"ABc "C"GEC|"Dm"DEF Ddc|"Am7"AGA "C"c3|
"Dm"DEF Ddc|"Am7"AGE "C"GAc|"Dm"ded "C"cGE|"Dm"FDD D3 :|
"Dm"dAd fed|"C"cGc edc|"Dm"dAd fga|"C"gfe dcA|
"Dm"dAd fed|"C"cGc edc|"Am7"ABc "C"GFE|"Dm"FDD D3 :|
%%%%%%%%%%%%%%%%%%%%%%%%%%%%%%%%%%%%%%%%%%%
